!! 00000] TT[WS
!!!OTL: Wuhua qiang
!!!ARE: Asia, China, Shanxi Heshun
!! Ethnic Group: Han
!! WI, 195 (2)
!!!SCT: J0233
!!!YEM: Copyright 1995, estate of Helmut Schaffrath.
**kern
*ICvox
*Ivox
*M2/4
*k[b-e-]
*B-:
{8r
4cc
8dd
=1
4.b-
8cc
=2
8r
4b-
8b-
=3
8b-
16g
16b-
4cc}
=4
{8r
8ff
8dd
8ff
=5
8cc
8dd
4b-
=6
8g
16cc
16dd
8a
8g
=7
2f}
=8
{8r
8b-
8g
8f
=9
2b-
=10
8b-
16g
16b-
4cc}
=11
{8r
8ff
8dd
8ff
=12
8cc
16dd
16cc
8b-
16a
16g
=13
8f
16g
16f
8r
8b-
=14
8ff
8gg}
{4b-
=15
16cc
16ff
16dd
16cc
8b-
[8b-
=16
8b-]
8cc
4b-
=17
8r
4d
8g
=18
4f
8g
8d
=19
4f
4r}
==
!!!AGN: Xiaodiao, Fengsuge. Qingge
!!!ONB: ESAC (Essen Associative Code) Database: CHINA
!!!AMT: simple duple
!!!AIN: vox
!!!EED: Helmut Schaffrath
!!!EEV: 1.0
*-
!!!ONB: Tied note syntax fixed by Craig Sapp, 2004/05/03/
